media/1_vee_1.svg

<?xml version="1.0" encoding="UTF-8" standalone="no"?>
<svg
   version="1.1"
   id="svg444"
   viewBox="0 0 721.17641 1490.1547"
   sodipodi:docname="1_vee_1.svg"
   inkscape:version="1.4 (e7c3feb100, 2024-10-09)"
   xmlns:inkscape="http://www.inkscape.org/namespaces/inkscape"
   xmlns:sodipodi="http://sodipodi.sourceforge.net/DTD/sodipodi-0.dtd"
   xmlns="http://www.w3.org/2000/svg"
   xmlns:svg="http://www.w3.org/2000/svg">
  <defs
     id="defs448">
    <inkscape:path-effect
       effect="knot"
       id="path-effect1"
       is_visible="true"
       lpeversion="1"
       switcher_size="15"
       interruption_width="5.6"
       prop_to_stroke_width="true"
       add_stroke_width="inkscape_1.0_and_up"
       both="false"
       inverse_width="false"
       add_other_stroke_width="inkscape_1.0_and_up"
       crossing_points_vector="" />
  </defs>
  <sodipodi:namedview
     id="namedview446"
     pagecolor="#282a36"
     bordercolor="#666666"
     borderopacity="1.0"
     inkscape:showpageshadow="2"
     inkscape:pageopacity="0.0"
     inkscape:pagecheckerboard="0"
     inkscape:deskcolor="#d1d1d1"
     showgrid="false"
     inkscape:zoom="0.62634129"
     inkscape:cx="334.48218"
     inkscape:cy="1028.9917"
     inkscape:window-width="2234"
     inkscape:window-height="1418"
     inkscape:window-x="0"
     inkscape:window-y="0"
     inkscape:window-maximized="1"
     inkscape:current-layer="g4630">
    <inkscape:page
       x="0"
       y="0"
       id="page450"
       width="721.17639"
       height="1490.1547"
       margin="0"
       bleed="0" />
  </sodipodi:namedview>
  <g
     id="g452"
     inkscape:groupmode="layer"
     inkscape:label="Page 1"
     transform="matrix(1.3333333,0,0,-1.3333333,-384.23372,1101.1963)">
    <g
       id="g4630"
       transform="matrix(0,-1,-1,0,825.44495,825.96636)">
      <path
         id="path5610-7"
         style="fill:none;stroke:#ff851b;stroke-width:17.0079;stroke-linecap:butt;stroke-linejoin:miter;stroke-dasharray:none;stroke-opacity:1"
         class="stroke-orange"
         d="M 1022.5106,464.20553 672.9979,68.930089 M 676.71613,467.63773 816.58511,303.20981 M 878.9234,229.92583 1018.7924,65.497886 M 444.75637,464.20553 95.243644,68.930089 M 98.961866,467.63773 238.83086,303.2098 m 62.33829,-73.28398 139.869,-164.427934 m 234.38175,5.67364 c -81.64075,-88.42045 -156.51609,-88.4912 -238.68273,0.49412 M 680.63905,462.4855 c -81.64075,88.42045 -156.51609,88.4912 -238.68273,-0.49412"
         inkscape:path-effect="#path-effect1"
         inkscape:original-d="M 1022.5106,464.20553 672.9979,68.930089 M 676.71613,467.63773 1018.7924,65.497886 M 444.75637,464.20553 95.243644,68.930089 M 98.961866,467.63773 441.03815,65.497886 m 234.38175,5.67364 c -81.64075,-88.42045 -156.51609,-88.4912 -238.68273,0.49412 M 680.63905,462.4855 c -81.64075,88.42045 -156.51609,88.4912 -238.68273,-0.49412" />
      <g
         id="g30393"
         inkscape:label="brdr"
         style="display:inline"
         transform="matrix(2.8346458,0,0,-2.8346458,-26.0744,673.32768)"
         class="">
        <path
           class="fill-comment"
           style="display:inline;fill:#aaaaaa;fill-opacity:1;stroke:none;stroke-width:0.352778;stroke-opacity:1"
           d="M 95.986727,238.49586 C 55.96666,234.86994 22.490082,206.59238 12.232833,167.74923 c -4.0133095,-15.198 -4.0133095,-33.36826 0,-48.56626 9.679369,-36.654787 39.637477,-63.733936 77.403894,-69.965414 6.991548,-1.153609 22.641783,-1.153609 29.633333,0 41.25671,6.807379 72.6245,38.175164 79.43188,79.431874 1.84983,11.21107 0.9976,27.64223 -2.02799,39.0998 -9.6571,36.57046 -39.81128,63.87166 -77.2275,69.92077 -4.45449,0.72016 -18.98182,1.23157 -23.459723,0.82586 z m 22.401393,-5.72037 c 52.7555,-8.69562 86.4767,-59.58006 73.70138,-111.21356 -8.70542,-35.184345 -37.59744,-61.552962 -73.87777,-67.425367 -6.89864,-1.116626 -21.006787,-1.117826 -27.693058,-0.0024 -39.312737,6.558542 -69.068477,36.348289 -75.385466,75.471627 -1.068038,6.61474 -1.147323,20.30013 -0.154896,26.73666 6.488217,42.08024 39.945426,73.56139 82.066751,77.21968 4.230239,0.3674 17.253599,-0.11262 21.343059,-0.78668 z"
           id="path21850"
           inkscape:label="path21850" />
      </g>
      <g
         id="g30393-8"
         inkscape:label="brdr"
         style="display:inline"
         transform="matrix(2.8346458,0,0,-2.8346458,551.67986,673.32768)"
         class="">
        <path
           class="fill-comment"
           style="display:inline;fill:#aaaaaa;fill-opacity:1;stroke:none;stroke-width:0.352778;stroke-opacity:1"
           d="M 95.986727,238.49586 C 55.96666,234.86994 22.490082,206.59238 12.232833,167.74923 c -4.0133095,-15.198 -4.0133095,-33.36826 0,-48.56626 9.679369,-36.654787 39.637477,-63.733936 77.403894,-69.965414 6.991548,-1.153609 22.641783,-1.153609 29.633333,0 41.25671,6.807379 72.6245,38.175164 79.43188,79.431874 1.84983,11.21107 0.9976,27.64223 -2.02799,39.0998 -9.6571,36.57046 -39.81128,63.87166 -77.2275,69.92077 -4.45449,0.72016 -18.98182,1.23157 -23.459723,0.82586 z m 22.401393,-5.72037 c 52.7555,-8.69562 86.4767,-59.58006 73.70138,-111.21356 -8.70542,-35.184345 -37.59744,-61.552962 -73.87777,-67.425367 -6.89864,-1.116626 -21.006787,-1.117826 -27.693058,-0.0024 -39.312737,6.558542 -69.068477,36.348289 -75.385466,75.471627 -1.068038,6.61474 -1.147323,20.30013 -0.154896,26.73666 6.488217,42.08024 39.945426,73.56139 82.066751,77.21968 4.230239,0.3674 17.253599,-0.11262 21.343059,-0.78668 z"
           id="path21850-1"
           inkscape:label="path21850" />
      </g>
    </g>
  </g>
</svg>

<svg xmlns="http://www.w3.org/2000/svg" viewBox="0 0 721.176 1490.155"><path d="M1022.51 464.206 672.999 68.93m3.718 398.708 139.87-164.428m62.337-73.284 139.87-164.428M444.755 464.206 95.244 68.93m3.718 398.708L238.83 303.21m62.338-73.284L441.04 65.498m234.38 5.674c-81.64-88.42-156.515-88.492-238.682.494m243.902 390.82c-81.64 88.42-156.516 88.49-238.683-.495" class="stroke-orange" style="fill:none;stroke:#ff851b;stroke-width:17.0079;stroke-linecap:butt;stroke-linejoin:miter;stroke-dasharray:none;stroke-opacity:1" transform="rotate(90 358.226 358.134)scale(1.33333)"/><g style="display:inline"><path d="M95.987 238.496c-40.02-3.626-73.497-31.904-83.754-70.747-4.013-15.198-4.013-33.368 0-48.566 9.68-36.655 39.637-63.734 77.404-69.965 6.991-1.154 22.642-1.154 29.633 0 41.257 6.807 72.625 38.175 79.432 79.431 1.85 11.211.998 27.643-2.028 39.1-9.657 36.57-39.811 63.872-77.228 69.921-4.454.72-18.981 1.232-23.46.826m22.401-5.72c52.756-8.696 86.477-59.58 73.702-111.214-8.706-35.184-37.598-61.553-73.878-67.425-6.899-1.117-21.007-1.118-27.693-.003-39.313 6.559-69.069 36.348-75.386 75.472-1.068 6.615-1.147 20.3-.155 26.736 6.489 42.08 39.946 73.562 82.067 77.22 4.23.368 17.254-.112 21.343-.787" class="fill-comment" style="display:inline;fill:#aaa;fill-opacity:1;stroke:none;stroke-width:.352778;stroke-opacity:1" transform="matrix(0 3.77953 3.77953 0 -181.41 -34.858)"/></g><g style="display:inline"><path d="M95.987 238.496c-40.02-3.626-73.497-31.904-83.754-70.747-4.013-15.198-4.013-33.368 0-48.566 9.68-36.655 39.637-63.734 77.404-69.965 6.991-1.154 22.642-1.154 29.633 0 41.257 6.807 72.625 38.175 79.432 79.431 1.85 11.211.998 27.643-2.028 39.1-9.657 36.57-39.811 63.872-77.228 69.921-4.454.72-18.981 1.232-23.46.826m22.401-5.72c52.756-8.696 86.477-59.58 73.702-111.214-8.706-35.184-37.598-61.553-73.878-67.425-6.899-1.117-21.007-1.118-27.693-.003-39.313 6.559-69.069 36.348-75.386 75.472-1.068 6.615-1.147 20.3-.155 26.736 6.489 42.08 39.946 73.562 82.067 77.22 4.23.368 17.254-.112 21.343-.787" class="fill-comment" style="display:inline;fill:#aaa;fill-opacity:1;stroke:none;stroke-width:.352778;stroke-opacity:1" transform="matrix(0 3.77953 3.77953 0 -181.41 735.481)"/></g></svg>
